X: 40096
T: Tiarnan's
R: reel
M: 4/4
K: Dmixolydian
|:E2BE GEBE|EFGA B2AF|DFFF AFFF|DFFF AFDF|
E2BE GEBE|EFGA B2AF|EFGA B2dB|AFDE FEED:|
|:Add^c defg|agec dcAd|cG ~G2 (3Bcd eg|agec dcAG|
ADFA defg|agec dcAd|cG ~G2 (3Bcd ed|cAGc ADD2:|

